X:4868
T: Orijent
O:england
N: Serbian line dance
M: 2/4
L: 1/16
K: AMix
|: "A"c2ed cccA | cAgf eeec | "D"a2g2 fdgf |1 "E7"ecdB "A"cccA |2 "E7"ecdB "A"c4 :|
|: "D"a2g2 fdgf | "A"ecgf eeec | "(E)"f2e2 ecef |1 "E7"dBed "A"cccA :|2 "E7"dBed "A"c4 :| [K:GDor]
|: "D"^FDFG AcBA | "Gm"AG^FG AB^cd | "(A)"egfe ed^cd | fed^c "Gm"BAG2 |
|  "D"^FDFG AcBA | "Gm"AG^FG AB^cd | "(A)"egfe d^cBA | "Gm"G4 z4 :|


